32x32/apps/ubuntu-tweak.svg

<svg xmlns="http://www.w3.org/2000/svg" width="32" height="32" version="1.1">
 <path fill="#7ec639" d="m30 16a14 14 0 0 1 -14 14 14 14 0 0 1 -14 -14 14 14 0 0 1 14 -14 14 14 0 0 1 14 14z"/>
 <path opacity=".2" d="m29.979 16.414a14 14 0 0 1 -13.979 13.586 14 14 0 0 1 -13.978 -13.414 14 14 0 0 0 -0.022 0.414 14 14 0 0 0 14 14 14 14 0 0 0 14 -14 14 14 0 0 0 -0.021 -0.586z"/>
 <path fill="#4d4d4d" d="m23.93 15a8 8 0 0 0 -2.895 -5.1992c-0.325 0.1216-0.67 0.1992-1.035 0.1992-1.258 0-2.34-0.7945-2.783-1.9023a8 8 0 0 0 -1.217 -0.0977 8 8 0 0 0 -3.104 0.627l1.5215 2.6367a5 5 0 0 1 1.582 -0.264 5 5 0 0 1 4.8945 4h3.0352zm-0.002 2h-3.0293a5 5 0 0 1 -4.8984 4 5 5 0 0 1 -1.582 -0.26172l-1.5176 2.6289a8 8 0 0 0 3.099 0.633 8 8 0 0 0 1.221 -0.105c0.444-1.104 1.524-1.895 2.779-1.895 0.36611 0 0.71342 0.07673 1.0391 0.19922a8 8 0 0 0 2.889 -5.199zm-1.928-10a2 2 0 0 0 -2 -2 2 2 0 0 0 -2 2 2 2 0 0 0 2 2 2 2 0 0 0 2 -2zm0 18a2 2 0 0 0 -2 -2 2 2 0 0 0 -2 2 2 2 0 0 0 2 2 2 2 0 0 0 2 -2zm-9.312-12.736-1.518-2.6292a8 8 0 0 0 -2.918 4.4122c0.45895 0.52763 0.74805 1.2063 0.74805 1.9531 0 0.74588-0.28822 1.4238-0.74609 1.9512a8 8 0 0 0 2.9141 4.418l1.52-2.631a5 5 0 0 1 -1.688 -3.738 5 5 0 0 1 1.688 -3.736zm-4.688 3.736a2 2 0 0 0 -2 -2 2 2 0 0 0 -2 2 2 2 0 0 0 2 2 2 2 0 0 0 2 -2z"/>
 <path fill="#4d4d4d" d="m15 12-0.0882 1.0536a3.1429 3.1429 0 0 0 -0.91852 0.53126l-0.95759-0.4509-1 1.7321 0.86941 0.6038a3.1429 3.1429 0 0 0 -0.048 0.53013 3.1429 3.1429 0 0 0 0.0457 0.53237l-0.86719 0.60156 1 1.7321 0.95536-0.44978a3.1429 3.1429 0 0 0 0.92075 0.5279l0.0882 1.0558h2l0.0882-1.0536a3.1429 3.1429 0 0 0 0.91854 -0.53126l0.95758 0.4509 1-1.7321-0.86942-0.6038a3.1429 3.1429 0 0 0 0.048 -0.53013 3.1429 3.1429 0 0 0 -0.0457 -0.53237l0.86719-0.60156-1-1.7321-0.95536 0.44978a3.1429 3.1429 0 0 0 -0.92076 -0.5279l-0.0882-1.0558h-2zm1 2.8572a1.1429 1.1429 0 0 1 1.1429 1.1428 1.1429 1.1429 0 0 1 -1.1429 1.1428 1.1429 1.1429 0 0 1 -1.1429 -1.1428 1.1429 1.1429 0 0 1 1.1428 -1.1428z"/>
 <path fill="#fff" opacity=".2" d="m16 2a14 14 0 0 0 -14 14 14 14 0 0 0 0.0215 0.586 14 14 0 0 1 13.978 -13.586 14 14 0 0 1 13.979 13.414 14 14 0 0 0 0.021 -0.414 14 14 0 0 0 -14 -14z"/>
</svg>

<svg xmlns="http://www.w3.org/2000/svg" width="32" height="32"><path fill="#7ec639" d="M30 16a14 14 0 0 1-14 14A14 14 0 0 1 2 16 14 14 0 0 1 16 2a14 14 0 0 1 14 14z"/><path opacity=".2" d="M29.979 16.414A14 14 0 0 1 16 30 14 14 0 0 1 2.022 16.586 14 14 0 0 0 2 17a14 14 0 0 0 14 14 14 14 0 0 0 14-14 14 14 0 0 0-.021-.586z"/><path fill="#4d4d4d" d="M23.93 15a8 8 0 0 0-2.895-5.2c-.325.122-.67.2-1.035.2-1.258 0-2.34-.795-2.783-1.902A8 8 0 0 0 16 8a8 8 0 0 0-3.104.627l1.521 2.637A5 5 0 0 1 16 11a5 5 0 0 1 4.895 4h3.035zm-.002 2h-3.03A5 5 0 0 1 16 21a5 5 0 0 1-1.582-.262l-1.517 2.63A8 8 0 0 0 16 24a8 8 0 0 0 1.22-.105C17.666 22.791 18.746 22 20 22c.366 0 .713.077 1.039.2a8 8 0 0 0 2.889-5.2zM22 7a2 2 0 0 0-2-2 2 2 0 0 0-2 2 2 2 0 0 0 2 2 2 2 0 0 0 2-2zm0 18a2 2 0 0 0-2-2 2 2 0 0 0-2 2 2 2 0 0 0 2 2 2 2 0 0 0 2-2zm-9.312-12.736-1.518-2.63a8 8 0 0 0-2.918 4.413A2.97 2.97 0 0 1 9 16a2.97 2.97 0 0 1-.746 1.951 8 8 0 0 0 2.914 4.418l1.52-2.63A5 5 0 0 1 11 16a5 5 0 0 1 1.688-3.736zM8 16a2 2 0 0 0-2-2 2 2 0 0 0-2 2 2 2 0 0 0 2 2 2 2 0 0 0 2-2z"/><path fill="#4d4d4d" d="m15 12-.088 1.054a3.143 3.143 0 0 0-.919.53l-.957-.45-1 1.732.87.604a3.143 3.143 0 0 0-.049.53 3.143 3.143 0 0 0 .046.532l-.867.602 1 1.732.955-.45a3.143 3.143 0 0 0 .92.528L15 20h2l.088-1.054a3.143 3.143 0 0 0 .919-.53l.957.45 1-1.732-.87-.604a3.143 3.143 0 0 0 .049-.53 3.143 3.143 0 0 0-.046-.532l.867-.602-1-1.732-.955.45a3.143 3.143 0 0 0-.92-.528L17 12h-2zm1 2.857A1.143 1.143 0 0 1 17.143 16 1.143 1.143 0 0 1 16 17.143 1.143 1.143 0 0 1 14.857 16 1.143 1.143 0 0 1 16 14.857z"/><path fill="#fff" opacity=".2" d="M16 2A14 14 0 0 0 2 16a14 14 0 0 0 .021.586A14 14 0 0 1 16 3a14 14 0 0 1 13.978 13.414A14 14 0 0 0 30 16 14 14 0 0 0 16 2z"/></svg>
